icons/hearts-alt.svg

<svg width="24" height="24" viewBox="0 0 24 24" fill="none" xmlns="http://www.w3.org/2000/svg">
<path fill-rule="evenodd" clip-rule="evenodd" d="M9.38492 9.94574C8.75299 9.39785 7.9171 9.44349 7.43032 9.93026L6.59999 10.7606L5.76966 9.93026C5.53153 9.69213 5.13324 9.54993 4.79999 9.54993C4.51461 9.54993 4.19489 9.65988 3.91176 9.85546C3.40004 10.4822 3.45387 11.2931 3.93032 11.7696L4.23597 12.0752L6.52315 14.4619C6.52451 14.4624 6.52618 14.4631 6.52818 14.4638C6.54372 14.4695 6.56893 14.4749 6.59999 14.4749C6.63105 14.4749 6.65627 14.4695 6.67181 14.4638C6.67432 14.4629 6.67631 14.4621 6.67782 14.4614L9.36966 11.7696C9.6078 11.5315 9.74999 11.1332 9.74999 10.7999C9.74999 10.5108 9.638 10.2062 9.38492 9.94574ZM6.66966 14.4696C6.66962 14.4696 6.66971 14.4696 6.66966 14.4696V14.4696ZM6.59808 8.6644C7.70823 7.77064 9.30933 7.87144 10.3983 8.83938L10.4147 8.85402L10.4303 8.8696C10.9665 9.40577 11.25 10.0948 11.25 10.7999C11.25 11.4667 10.9922 12.2684 10.4303 12.8303L7.73032 15.5303C7.40784 15.8527 6.97385 15.9749 6.59999 15.9749C6.22613 15.9749 5.79214 15.8527 5.46966 15.5303L5.46402 15.5246L3.16402 13.1246L2.86966 12.8303C1.76076 11.7214 1.80285 9.96782 2.83944 8.80166L2.8896 8.74523L2.94999 8.69993C3.45224 8.32325 4.10633 8.04993 4.79999 8.04993C5.37943 8.04993 6.06079 8.24463 6.59808 8.6644Z" fill="black"/>
<path fill-rule="evenodd" clip-rule="evenodd" d="M20.1179 9.79048C19.495 9.3016 18.7001 9.36053 18.2303 9.83029L17.4 10.6606L16.5697 9.83029C16.3315 9.59216 15.9333 9.44996 15.6 9.44996C15.194 9.44996 14.8931 9.57484 14.6458 9.81503C14.0979 10.447 14.1436 11.2829 14.6303 11.7696L14.9303 12.0696L17.3222 14.4615C17.3237 14.4621 17.3257 14.463 17.3282 14.4639C17.3437 14.4695 17.3689 14.475 17.4 14.475C17.4311 14.475 17.4563 14.4695 17.4718 14.4639C17.4738 14.4631 17.4755 14.4625 17.4769 14.4619L19.764 12.0753L20.0697 11.7696C20.3078 11.5315 20.45 11.1332 20.45 10.8C20.45 10.5204 20.3453 10.192 20.1179 9.79048ZM17.3981 8.56443C18.5082 7.67066 20.1093 7.77146 21.1983 8.7394L21.2841 8.81566L21.3431 8.91409C21.6733 9.46446 21.95 10.1034 21.95 10.8C21.95 11.4667 21.6922 12.2684 21.1303 12.8303L20.836 13.1246L18.536 15.5246L18.5303 15.5303C18.2079 15.8528 17.7739 15.975 17.4 15.975C17.0261 15.975 16.5922 15.8528 16.2697 15.5303L13.8697 13.1303L13.5697 12.8303C12.4608 11.7214 12.5029 9.96784 13.5394 8.80168L13.5541 8.78521L13.5697 8.76963C14.1195 8.21978 14.8145 7.94996 15.6 7.94996C16.1794 7.94996 16.8608 8.14466 17.3981 8.56443Z" fill="black"/>
</svg>

<svg xmlns="http://www.w3.org/2000/svg" fill="none" viewBox="0 0 24 24">
  <path fill="#000" fill-rule="evenodd" d="M9.385 9.983c-.632-.548-1.468-.502-1.955-.015l-.83.83-.83-.83c-.238-.238-.637-.38-.97-.38-.285 0-.605.11-.888.305-.512.627-.458 1.438.018 1.914l.306.306 2.287 2.386.005.002c.016.006.04.011.072.011a.217.217 0 0 0 .078-.013l2.692-2.692c.238-.238.38-.636.38-.97 0-.289-.112-.593-.365-.854ZM6.67 14.507Zm-.072-5.805c1.11-.894 2.711-.793 3.8.175l.017.015.015.015a2.72 2.72 0 0 1 .82 1.93c0 .667-.258 1.469-.82 2.03l-2.7 2.7c-.322.323-.756.445-1.13.445-.374 0-.808-.122-1.13-.444l-.006-.006-2.3-2.4-.294-.294c-1.11-1.109-1.067-2.863-.03-4.029l.05-.056.06-.045c.502-.377 1.156-.65 1.85-.65a3 3 0 0 1 1.798.614Zm13.52 1.126c-.623-.489-1.418-.43-1.888.04l-.83.83-.83-.83c-.239-.238-.637-.38-.97-.38-.406 0-.707.124-.954.365-.548.632-.502 1.467-.016 1.954l.3.3 2.392 2.392.006.002c.016.006.04.012.072.012a.219.219 0 0 0 .072-.011l.005-.003 2.287-2.386.306-.306c.238-.238.38-.636.38-.97 0-.279-.105-.607-.332-1.009Zm-2.72-1.226c1.11-.894 2.711-.793 3.8.175l.086.076.06.099c.33.55.606 1.189.606 1.886 0 .666-.258 1.468-.82 2.03l-.294.294-2.3 2.4-.006.006c-.322.322-.756.445-1.13.445-.374 0-.808-.123-1.13-.445l-2.4-2.4-.3-.3c-1.11-1.109-1.067-2.863-.03-4.029l.014-.016.016-.016c.55-.55 1.245-.82 2.03-.82.58 0 1.26.195 1.798.615Z" clip-rule="evenodd"/>
</svg>
